Numix-GalliumOS/16/mimetypes/gddraw.svg

<?xml version="1.0" encoding="UTF-8" standalone="no"?>
<svg
   xmlns:dc="http://purl.org/dc/elements/1.1/"
   xmlns:cc="http://creativecommons.org/ns#"
   xmlns:rdf="http://www.w3.org/1999/02/22-rdf-syntax-ns#"
   xmlns:svg="http://www.w3.org/2000/svg"
   xmlns="http://www.w3.org/2000/svg"
   xmlns:sodipodi="http://sodipodi.sourceforge.net/DTD/sodipodi-0.dtd"
   xmlns:inkscape="http://www.inkscape.org/namespaces/inkscape"
   width="16"
   height="16"
   viewBox="0 0 16 16"
   id="svg2"
   version="1.1"
   inkscape:version="0.91 r13725"
   sodipodi:docname="gddraw.svg">
  <metadata
     id="metadata22">
    <rdf:RDF>
      <cc:Work
         rdf:about="">
        <dc:format>image/svg+xml</dc:format>
        <dc:type
           rdf:resource="http://purl.org/dc/dcmitype/StillImage" />
      </cc:Work>
    </rdf:RDF>
  </metadata>
  <defs
     id="defs20">
    <clipPath
       id="clipPath-201045889">
      <g
         transform="translate(0,-1004.3622)"
         id="g17">
        <path
           style="fill:#1890d0"
           inkscape:connector-curvature="0"
           d="m -24,13 c 0,1.105 -0.672,2 -1.5,2 -0.828,0 -1.5,-0.895 -1.5,-2 0,-1.105 0.672,-2 1.5,-2 0.828,0 1.5,0.895 1.5,2 z"
           transform="matrix(15.333333,0,0,11.5,414.99999,878.8622)"
           id="path19" />
      </g>
    </clipPath>
  </defs>
  <sodipodi:namedview
     pagecolor="#ffffff"
     bordercolor="#666666"
     borderopacity="1"
     objecttolerance="10"
     gridtolerance="10"
     guidetolerance="10"
     inkscape:pageopacity="0"
     inkscape:pageshadow="2"
     inkscape:window-width="1280"
     inkscape:window-height="998"
     id="namedview18"
     showgrid="true"
     inkscape:zoom="29.5"
     inkscape:cx="-0.29905253"
     inkscape:cy="9.6816835"
     inkscape:window-x="0"
     inkscape:window-y="0"
     inkscape:window-maximized="1"
     inkscape:current-layer="svg2">
    <inkscape:grid
       type="xygrid"
       id="grid3010" />
  </sodipodi:namedview>
  <path
     style="fill:#e73144;fill-opacity:1"
     d="M 2.667969,-4.465e-4 C 2.324219,-4.465e-4 2,0.3378115 2,0.6964462 L 2,15.303108 C 2,15.641365 2.34375,16 2.667969,16 l 10.664062,0 C 13.65625,16 14,15.641365 14,15.303108 L 14,3.9995533 10,-4.465e-4 z"
     id="path4-2"
     inkscape:connector-curvature="0"
     sodipodi:nodetypes="ssssssccs" />
  <path
     style="fill:#000000;fill-opacity:0.19599998"
     d="m 10.583223,3.3315843 0.0154,0.01953 0.04005,-0.01953 z m 0.02978,0.667969 3.387,3.664062 0,-3.664062 z"
     id="path6"
     inkscape:connector-curvature="0"
     sodipodi:nodetypes="cccccccc" />
  <path
     style="fill:#ffffff;fill-opacity:0.39200003"
     d="m 10,-4.465e-4 3.996396,3.9999998 -3.383784,0 C 10.313513,3.9995533 10,3.6824363 10,3.3833373 z"
     id="path8"
     inkscape:connector-curvature="0"
     sodipodi:nodetypes="ccssc" />
  <path
     id="path55"
     d="m 7,8 5,0 0,5 -5,0 M 7,8"
     inkscape:connector-curvature="0"
     style="fill:#f9f9f9;fill-opacity:0.74900004;fill-rule:nonzero;stroke:none" />
  <path
     id="path57"
     d="m 9.999803,7.9999998 c 0.012351,1.0680556 -0.5568757,2.0592972 -1.4902955,2.5969912 -0.9334197,0.537345 -2.0856373,0.537345 -3.019057,0 C 4.5584422,10.059646 3.9892151,9.0680554 4.0001549,7.9999998 3.9892151,6.9319442 4.5584422,5.9407019 5.4904505,5.4030081 c 0.9334197,-0.5373448 2.0856373,-0.5373448 3.019057,0 0.9334198,0.5373447 1.5026475,1.5289361 1.4902955,2.5969917 m 0,0"
     inkscape:connector-curvature="0"
     style="fill:#f9f9f9;fill-opacity:0.74900004;fill-rule:nonzero;stroke:none" />
</svg>

<svg xmlns="http://www.w3.org/2000/svg" viewBox="0 0 16 16">
 <defs>
  
 </defs>
 <path d="m 2.668 0 c -0.344 0 -0.668 0.338 -0.668 0.697 l 0 14.607 c 0 0.338 0.344 0.697 0.668 0.697 l 10.664 0 c 0.324 0 0.668 -0.359 0.668 -0.697 l 0 -11.304 -4 -4 z" style="fill:#e73144;fill-opacity:1"/>
 <path d="m 10.583 3.332 0.015 0.02 0.04 -0.02 z m 0.03 0.668 3.387 3.664 0 -3.664 z" style="fill:#000;fill-opacity:0.196"/>
 <path d="m 10 0 3.996 4 -3.384 0 c -0.299 0 -0.613 -0.317 -0.613 -0.616 z" style="fill:#fff;fill-opacity:0.392"/>
 <path d="m 7,8 5,0 0,5 -5,0 M 7,8" style="fill:#f9f9f9;fill-opacity:0.749;stroke:none;fill-rule:nonzero"/>
 <path d="m 10 8 c 0.012 1.068 -0.557 2.059 -1.49 2.597 -0.933 0.537 -2.086 0.537 -3.02 0 c -0.932 -0.537 -1.501 -1.529 -1.49 -2.597 -0.011 -1.068 0.558 -2.059 1.49 -2.597 c 0.933 -0.537 2.086 -0.537 3.02 0 0.933 0.537 1.503 1.529 1.49 2.597 m 0 0" style="fill:#f9f9f9;fill-opacity:0.749;stroke:none;fill-rule:nonzero"/>
</svg>
